!!!OTL: 2060. Marias Wanderung.
!!!ARE: Europa, Mitteleuropa, Deutschland, Rheinland, Siebengebirge
!!!SCT: E2060
!!!TXL: @@DE
!!!YEM: Copyright 1995, estate of Helmut Schaffrath.
**kern	**text
*ICvox	*
*M4/4	*
*met(c)	*
*k[b-e-]	*
*g:	*
!LO:TX:a:t=Ruhig.	!
!LO:TX:a:t=Aus dem Siebengebirge. Dr. Arnold's Hdſchr. und Kretʒſchmer II, Nr. 14.	!
{4d	Ma-
=1	=1
4g	-ri-
4a	-a
4b-/	die
8aL	wollt
8gJ	.
=2	=2
(8a	wandern
8g)	.
4f	gehn,
4r}	.
{4b-	wollt
=3	=3
4a	ſu-
8dL	-chen
8eJ	.
4f	ih-
4e	-ren
=4	=4
2d	Sohn,
4r}	.
{4g	den
=5	=5
4a	ſie
4dd	ver-
8ddL	-lo-
8ccJ	.
8ccL	-ren
8b-J	.
=6	=6
2a	ſchon,
4r}	.
{8b-L	den
8aJ	.
=7	=7
8gL	ſie
8f#J	.
8gL	ver-
8aJ	.
4b-	-lo-
4a	-ren
=8	=8
2g	ſchon.
4r}	.
==	==
!!!AGN: geistlich, Marien - Lied, Legende
!!!ONB: ESAC (Essen Associative Code) Database: ERK3
!!!AMT: simple quadruple
!!!AIN: vox
!!!EED: Helmut Schaffrath
!!!EEV: 1.0
!!!GTL: 4. Katholische Lieder: b) Marienlieder (Rufe und Legenden.)
!!!URL-scan: https://rosdok.uni-rostock.de/mcrviewer/recordIdentifier/rosdok_ppn745177999/iview2/phys_0761.iview2?x=154.36169998046898&y=1624.6366321919486&scale=0.7014306698522891&rotation=0&layout=singlePageLayout
!!!ENC: Anna Maria Matuszewska
!!!EEV: 2025/13/01
*-	*-
